X: 1
T: HASTE TO THE WEDDING -- JIG
B: Ryan's Mammoth Collection of Fiddle Tunes
R: jig
M: 6/8
L: 1/8
Z: Contributed 20000830142017 by John Chambers John.Chambers:weema.com
K: D
uA \
| AFG Agf | ede fdB | AFA AdF | EFE E2(F/G/) \
| AFG Aaf | ede fdB | AFA faf | ddd d2:|
|: vf/g/ \
| afa afa | bgb bag | fga agf | efe efg \
| ka3 kf3 | ede fdB | AFA faf | ddd d2:|
